!!!OTL: BISTU DES GOLDSCHMIEDS TOECHTERLEIN
!!!ARE: Europa, Mitteleuropa, Deutschland
!!!SCT: E0487
!!!YEM: Copyright 1995, estate of Helmut Schaffrath.
**kern
*ICvox
*Ivox
*M4/4
*k[]
*a:
{4e
=1
4a
4b
4ccn
4a
=2
4g#
4b
4a}
{4ccn
=3
4b
4a
4gn
4f#
=4
2e
2d#
=5
2.e}
{4e
=6
4a
4b
4ccn
4a
=7
4g#
4b
4a}
{4ccn
=8
4b
4a
4gn
4f#
=9
2e
2d#
=10
2.e}
{4b
=11
4ccn
4b
4ccn
4a
=12
4gn
4f#
2e}
=13
{2ccn
2dd
=14
2.ee
8dd
8ccn
=15
4b
4a
4g#}
{4a
=16
4b
4a
4a
4g#
=17
2.a}
{4a
=18
4e
4e
4f#
4g#
=19
2.a}
==
!!!AGN: Liebes - Lied
!!!ONB: ESAC (Essen Associative Code) Database: ERK1
!!!AMT: simple quadruple
!!!AIN: vox
!!!EED: Helmut Schaffrath
!!!EEV: 1.0
*-
